_site/images/contact/contact-image.svg

<svg fill="none" height="223" viewBox="0 0 312 223" width="312" xmlns="http://www.w3.org/2000/svg" xmlns:xlink="http://www.w3.org/1999/xlink"><filter id="a" color-interpolation-filters="sRGB" filterUnits="userSpaceOnUse" height="223" width="304" x="8" y="0"><feFlood flood-opacity="0" result="BackgroundImageFix"/><feColorMatrix in="SourceAlpha" type="matrix" values="0 0 0 0 0 0 0 0 0 0 0 0 0 0 0 0 0 0 127 0"/><feOffset dy="15"/><feGaussianBlur stdDeviation="22.5"/><feColorMatrix type="matrix" values="0 0 0 0 0.719566 0 0 0 0 0.748166 0 0 0 0 0.795833 0 0 0 0.25 0"/><feBlend in2="BackgroundImageFix" mode="normal" result="effect1_dropShadow"/><feBlend in="SourceGraphic" in2="effect1_dropShadow" mode="normal" result="shape"/></filter><filter id="b" color-interpolation-filters="sRGB" filterUnits="userSpaceOnUse" height="137" width="137" x="0" y="35"><feFlood flood-opacity="0" result="BackgroundImageFix"/><feColorMatrix in="SourceAlpha" type="matrix" values="0 0 0 0 0 0 0 0 0 0 0 0 0 0 0 0 0 0 127 0"/><feOffset dx="9" dy="20"/><feGaussianBlur stdDeviation="20"/><feColorMatrix type="matrix" values="0 0 0 0 0 0 0 0 0 0.351917 0 0 0 0 0.429167 0 0 0 0.25 0"/><feBlend in2="BackgroundImageFix" mode="normal" result="effect1_dropShadow"/><feBlend in="SourceGraphic" in2="effect1_dropShadow" mode="normal" result="shape"/></filter><g filter="url(#a)"><rect fill="#fff" height="133" rx="30" width="214" x="53" y="30"/></g><g filter="url(#b)"><rect fill="#00a0b6" height="57" rx="17" width="57" x="31" y="55"/></g><rect fill="#9cd7eb" height="20" rx="10" transform="matrix(-1 0 0 -1 418 80)" width="43" x="209" y="40"/><rect fill="#9cd7eb" height="20" rx="10" transform="matrix(-1 0 0 -1 224 350)" width="31" x="112" y="175"/><rect fill="#ff647c" height="30" rx="7" width="30" x="252" y="90"/><g clip-rule="evenodd" fill-rule="evenodd"><path d="m203.515 127.834c5.011-6.711 6.704-15.331 4.601-23.435s-7.774-14.817-15.418-18.2504c-2.251-12.9412-12.294-23.1348-25.211-25.5907-12.917-2.4558-26.005 3.34-32.858 14.5502s-6.037 25.4889 2.05 35.8469l-5.487 5.442c-1.12 1.134-1.448 2.83-.829 4.299.605 1.472 2.038 2.437 3.632 2.445h22.462c4.566 9.615 14.258 15.752 24.911 15.774h23.687c1.593-.007 3.026-.972 3.632-2.445.618-1.468.291-3.164-.829-4.298zm-49.782-16.525c.006 1.321.111 2.639.316 3.944h-10.54l1.381-1.341c.748-.74 1.168-1.748 1.168-2.8 0-1.051-.42-2.059-1.168-2.8-4.469-4.416-6.973-10.4416-6.948-16.7212 0-13.0683 10.605-23.6623 23.687-23.6623 10.051-.0603 19.022 6.2847 22.305 15.7748h-2.566c-15.262 0-27.635 12.3597-27.635 27.6057zm41.808 19.916-.197-.197c-.754-.738-1.18-1.746-1.185-2.8.015-1.04.441-2.032 1.185-2.76 6.666-6.643 7.708-17.065 2.487-24.893-5.22-7.8287-15.248-10.8836-23.953-7.2972-8.705 3.5863-13.662 12.8152-11.84 22.0442 1.822 9.228 9.915 15.887 19.331 15.903z" fill="#d9f1f4"/><path d="m259.675 101.792c1.276-2.9064 4.149-4.786 7.325-4.792 3.176.006 6.049 1.8856 7.325 4.792 1.276 2.906.713 6.291-1.434 8.63-1.517 1.643-3.653 2.578-5.891 2.578s-4.374-.935-5.891-2.578c-2.147-2.339-2.71-5.724-1.434-8.63zm2.877 7.821c1.193 1.153 2.788 1.799 4.448 1.802 1.66-.003 3.255-.649 4.448-1.802-.741-1.802-2.498-2.979-4.448-2.979s-3.707 1.177-4.448 2.979zm2.845-6.206c0-.885.718-1.602 1.603-1.602s1.603.717 1.603 1.602c0 .884-.718 1.601-1.603 1.601s-1.603-.717-1.603-1.601zm4.008 2.098c1.315.531 2.417 1.483 3.133 2.707.571-.972.873-2.077.874-3.204 0-3.538-2.871-6.4064-6.412-6.4064s-6.412 2.8684-6.412 6.4064c.001 1.127.303 2.232.874 3.204.716-1.224 1.818-2.176 3.133-2.707-1.136-1.288-1.054-3.242.186-4.431 1.24-1.1885 3.198-1.1885 4.438 0 1.24 1.189 1.322 3.143.186 4.431z" fill="#fff"/><path d="m48.3984 72h22.2032c1.8739 0 3.3984 1.5749 3.3984 3.5106v14.9788c0 1.9357-1.5245 3.5106-3.3984 3.5106h-22.2032c-1.8739 0-3.3984-1.5749-3.3984-3.5106v-14.9788c0-1.9357 1.5245-3.5106 3.3984-3.5106zm22.2032 19.6596c.6246 0 1.1328-.525 1.1328-1.1702v-14.2608l-12.2339 9.4001-12.2349-9.4009v14.2616c0 .6452.5082 1.1702 1.1328 1.1702zm-21.9961-17.3192 10.895 8.3714 10.895-8.3714z" fill="#fcfdfd"/></g></svg>

<svg width="312" height="223" viewBox="0 0 312 223" fill="none" xmlns="http://www.w3.org/2000/svg">
<g filter="url(#filter0_d)">
<rect x="53" y="30" width="214" height="133" rx="30" fill="white"/>
</g>
<g filter="url(#filter1_d)">
<rect x="31" y="55" width="57" height="57" rx="17" fill="#00A0B6"/>
</g>
<rect x="209" y="40" width="43" height="20" rx="10" transform="rotate(-180 209 40)" fill="#9CD7EB"/>
<rect x="112" y="175" width="31" height="20" rx="10" transform="rotate(-180 112 175)" fill="#9CD7EB"/>
<rect x="252" y="90" width="30" height="30" rx="7" fill="#FF647C"/>
<path fill-rule="evenodd" clip-rule="evenodd" d="M203.515 127.834C208.526 121.123 210.219 112.503 208.116 104.399C206.013 96.295 200.342 89.582 192.698 86.1486C190.447 73.2074 180.404 63.0138 167.487 60.5579C154.57 58.1021 141.482 63.8979 134.629 75.1081C127.776 86.3183 128.592 100.597 136.679 110.955L131.192 116.397C130.072 117.531 129.744 119.227 130.363 120.696C130.968 122.168 132.401 123.133 133.995 123.141H156.457C161.023 132.756 170.715 138.893 181.368 138.915H205.055C206.648 138.908 208.081 137.943 208.687 136.47C209.305 135.002 208.978 133.306 207.858 132.172L203.515 127.834ZM153.733 111.309C153.739 112.63 153.844 113.948 154.049 115.253H143.509L144.89 113.912C145.638 113.172 146.058 112.164 146.058 111.112C146.058 110.061 145.638 109.053 144.89 108.312C140.421 103.896 137.917 97.8704 137.942 91.5908C137.942 78.5225 148.547 67.9285 161.629 67.9285C171.68 67.8682 180.651 74.2132 183.934 83.7033H181.368C166.106 83.7033 153.733 96.063 153.733 111.309ZM195.541 131.225L195.344 131.028C194.59 130.29 194.164 129.282 194.159 128.228C194.174 127.188 194.6 126.196 195.344 125.468C202.01 118.825 203.052 108.403 197.831 100.575C192.611 92.7463 182.583 89.6914 173.878 93.2778C165.173 96.8641 160.216 106.093 162.038 115.322C163.86 124.55 171.953 131.209 181.369 131.225H195.541Z" fill="#D9F1F4"/>
<path fill-rule="evenodd" clip-rule="evenodd" d="M259.675 101.792C260.951 98.8856 263.824 97.006 267 97C270.176 97.006 273.049 98.8856 274.325 101.792C275.601 104.698 275.038 108.083 272.891 110.422C271.374 112.065 269.238 113 267 113C264.762 113 262.626 112.065 261.109 110.422C258.962 108.083 258.399 104.698 259.675 101.792ZM262.552 109.613C263.745 110.766 265.34 111.412 267 111.415C268.66 111.412 270.255 110.766 271.448 109.613C270.707 107.811 268.95 106.634 267 106.634C265.05 106.634 263.293 107.811 262.552 109.613ZM265.397 103.407C265.397 102.522 266.115 101.805 267 101.805C267.885 101.805 268.603 102.522 268.603 103.407C268.603 104.291 267.885 105.008 267 105.008C266.115 105.008 265.397 104.291 265.397 103.407ZM269.405 105.505C270.72 106.036 271.822 106.988 272.538 108.212C273.109 107.24 273.411 106.135 273.412 105.008C273.412 101.47 270.541 98.6016 267 98.6016C263.459 98.6016 260.588 101.47 260.588 105.008C260.589 106.135 260.891 107.24 261.462 108.212C262.178 106.988 263.28 106.036 264.595 105.505C263.459 104.217 263.541 102.263 264.781 101.074C266.021 99.8855 267.979 99.8855 269.219 101.074C270.459 102.263 270.541 104.217 269.405 105.505Z" fill="white"/>
<path fill-rule="evenodd" clip-rule="evenodd" d="M48.3984 72H70.6016C72.4755 72 74 73.5749 74 75.5106V90.4894C74 92.4251 72.4755 94 70.6016 94H48.3984C46.5245 94 45 92.4251 45 90.4894V75.5106C45 73.5749 46.5245 72 48.3984 72ZM70.6016 91.6596C71.2262 91.6596 71.7344 91.1346 71.7344 90.4894V76.2286L59.5005 85.6287L47.2656 76.2278V90.4894C47.2656 91.1346 47.7738 91.6596 48.3984 91.6596H70.6016ZM48.6055 74.3404L59.5005 82.7118L70.3955 74.3404H48.6055Z" fill="#FCFDFD"/>
<defs>
<filter id="filter0_d" x="8" y="0" width="304" height="223" filterUnits="userSpaceOnUse" color-interpolation-filters="sRGB">
<feFlood flood-opacity="0" result="BackgroundImageFix"/>
<feColorMatrix in="SourceAlpha" type="matrix" values="0 0 0 0 0 0 0 0 0 0 0 0 0 0 0 0 0 0 127 0"/>
<feOffset dy="15"/>
<feGaussianBlur stdDeviation="22.5"/>
<feColorMatrix type="matrix" values="0 0 0 0 0.719566 0 0 0 0 0.748166 0 0 0 0 0.795833 0 0 0 0.25 0"/>
<feBlend mode="normal" in2="BackgroundImageFix" result="effect1_dropShadow"/>
<feBlend mode="normal" in="SourceGraphic" in2="effect1_dropShadow" result="shape"/>
</filter>
<filter id="filter1_d" x="0" y="35" width="137" height="137" filterUnits="userSpaceOnUse" color-interpolation-filters="sRGB">
<feFlood flood-opacity="0" result="BackgroundImageFix"/>
<feColorMatrix in="SourceAlpha" type="matrix" values="0 0 0 0 0 0 0 0 0 0 0 0 0 0 0 0 0 0 127 0"/>
<feOffset dx="9" dy="20"/>
<feGaussianBlur stdDeviation="20"/>
<feColorMatrix type="matrix" values="0 0 0 0 0 0 0 0 0 0.351917 0 0 0 0 0.429167 0 0 0 0.25 0"/>
<feBlend mode="normal" in2="BackgroundImageFix" result="effect1_dropShadow"/>
<feBlend mode="normal" in="SourceGraphic" in2="effect1_dropShadow" result="shape"/>
</filter>
</defs>
</svg>
